skin/frontend/rwd/default/images/icon-shops-ac3.svg

<?xml version="1.0" encoding="UTF-8" standalone="no"?>
<!-- Generator: Adobe Illustrator 15.1.0, SVG Export Plug-In . SVG Version: 6.00 Build 0)  -->
<!DOCTYPE svg  PUBLIC '-//W3C//DTD SVG 1.1//EN'  'http://www.w3.org/Graphics/SVG/1.1/DTD/svg11.dtd'>
<svg id="Layer_1" xmlns="http://www.w3.org/2000/svg" xml:space="preserve" height="28.578px" viewBox="0 0 30 28.578" width="30px" version="1.1" y="0px" x="0px" xmlns:xlink="http://www.w3.org/1999/xlink" enable-background="new 0 0 30 28.578">
<path d="m2.169 11.468v17.11h25.686v-17.11h-25.686zm23.137 11.978h-20.588v-9.429h20.588v9.429zm-12.883-23.446l-1.296 6.212h-0.005v1.263c0 1.333-1.081 2.414-2.415 2.414s-2.415-1.08-2.415-2.413v-1.264l3.703-6.212h2.428zm-3.814 0l-3.78 6.212v1.263c0 1.333-1.081 2.414-2.415 2.414s-2.414-1.08-2.414-2.413v-1.264l6.091-6.212h2.518zm21.391 6.212v1.263c0 1.333-1.081 2.414-2.415 2.414s-2.415-1.08-2.415-2.413v-1.264l-3.779-6.212h2.516l6.093 6.212zm-12.591 0h0.005v1.263c0 1.333-1.081 2.414-2.414 2.414s-2.415-1.081-2.415-2.414v-1.263h0.005l1.22-6.212h2.381l1.218 6.212zm2.596-6.212l3.702 6.212v1.263c0 1.333-1.082 2.414-2.416 2.414-1.333 0-2.413-1.081-2.413-2.414v-1.263h-0.007l-1.295-6.212h2.429z" fill="#AACB38"/>
</svg>

<?xml version="1.0" encoding="UTF-8"?>
<!-- Generator: Adobe Illustrator 15.1.0, SVG Export Plug-In . SVG Version: 6.00 Build 0)  -->
<!DOCTYPE svg PUBLIC "-//W3C//DTD SVG 1.1//EN" "http://www.w3.org/Graphics/SVG/1.1/DTD/svg11.dtd">
<svg version="1.1" id="Layer_1" xmlns="http://www.w3.org/2000/svg" xmlns:xlink="http://www.w3.org/1999/xlink" x="0px" y="0px" width="30px" height="28.578px" viewBox="0 0 30 28.578" enable-background="new 0 0 30 28.578" xml:space="preserve">
<path fill="#AACB38" d="M2.169,11.468v17.11h25.686v-17.11H2.169z M25.306,23.446H4.718v-9.429h20.588V23.446z M12.423,0  l-1.296,6.212h-0.005v1.263c0,1.333-1.081,2.414-2.415,2.414S6.292,8.809,6.292,7.476V6.212L9.995,0H12.423z M8.609,0l-3.78,6.212  v1.263c0,1.333-1.081,2.414-2.415,2.414S0,8.809,0,7.476V6.212L6.091,0H8.609z M30,6.212v1.263c0,1.333-1.081,2.414-2.415,2.414  S25.17,8.809,25.17,7.476V6.212L21.391,0h2.516L30,6.212z M17.409,6.212h0.005v1.263c0,1.333-1.081,2.414-2.414,2.414  c-1.333,0-2.415-1.081-2.415-2.414V6.212h0.005L13.81,0h2.381L17.409,6.212z M20.005,0l3.702,6.212v1.263  c0,1.333-1.082,2.414-2.416,2.414c-1.333,0-2.413-1.081-2.413-2.414V6.212h-0.007L17.576,0H20.005z"/>
</svg>
